images/whatsapp-icon.svg

<svg width="32" height="33" viewBox="0 0 32 33" fill="none" xmlns="http://www.w3.org/2000/svg">
<g id="whatsapp" clip-path="url(#clip0_391_659)">
<g id="Group">
<path id="Vector" opacity="0.996" fill-rule="evenodd" clip-rule="evenodd" d="M14.5312 0.46875C15.4896 0.46875 16.4479 0.46875 17.4062 0.46875C23.009 1.14924 27.2278 3.92008 30.0625 8.78125C31.1059 10.7482 31.7413 12.8315 31.9688 15.0312C31.9688 15.9896 31.9688 16.9479 31.9688 17.9062C31.2882 23.509 28.5174 27.7278 23.6562 30.5625C21.6893 31.6059 19.606 32.2413 17.4062 32.4688C16.4479 32.4688 15.4896 32.4688 14.5312 32.4688C8.9285 31.7882 4.70976 29.0174 1.875 24.1562C0.831581 22.1893 0.196163 20.106 -0.03125 17.9062C-0.03125 16.9479 -0.03125 15.9896 -0.03125 15.0312C0.649219 9.42856 3.42005 5.20983 8.28125 2.375C10.2482 1.33158 12.3315 0.696163 14.5312 0.46875Z" fill="#29A71A"/>
</g>
<g id="Group_2">
<path id="Vector_2" fill-rule="evenodd" clip-rule="evenodd" d="M15.2187 6.46875C19.3392 6.36696 22.4746 8.05444 24.625 11.5313C26.5 15.2178 26.2917 18.7803 24 22.2188C21.689 25.2015 18.6369 26.5453 14.8437 26.25C13.6882 26.1043 12.584 25.7814 11.5312 25.2813C9.90137 25.6471 8.27637 26.0324 6.65624 26.4375C6.13565 26.4775 5.95856 26.2379 6.12499 25.7188C6.45593 24.1265 6.77887 22.5328 7.09374 20.9375C5.39461 17.1463 5.7592 13.5734 8.18749 10.2188C10.0261 8.02338 12.3698 6.77338 15.2187 6.46875Z" fill="#FDFEFD"/>
</g>
<g id="Group_3">
<path id="Vector_3" fill-rule="evenodd" clip-rule="evenodd" d="M15.4062 8.59375C19.043 8.57756 21.6367 10.2026 23.1875 13.4687C24.3352 16.8467 23.6372 19.7737 21.0937 22.25C18.1533 24.5234 15.0491 24.763 11.7812 22.9687C10.7891 23.2142 9.79949 23.4642 8.81249 23.7187C8.93662 22.7122 9.11374 21.7122 9.34374 20.7187C9.02381 19.9364 8.72174 19.1447 8.43749 18.3437C7.70749 14.4821 9.00962 11.5341 12.3437 9.5C13.3181 9.012 14.3389 8.70987 15.4062 8.59375Z" fill="#2AA71B"/>
</g>
<g id="Group_4">
<path id="Vector_4" fill-rule="evenodd" clip-rule="evenodd" d="M12.5313 11.5937C12.8047 11.5842 13.0443 11.6675 13.25 11.8437C13.5796 12.5238 13.8921 13.2113 14.1875 13.9062C14.2313 14.1205 14.2105 14.3289 14.125 14.5312C13.8448 14.8217 13.6468 15.1551 13.5313 15.5312C13.5291 15.7146 13.5812 15.8812 13.6875 16.0312C14.2165 16.7061 14.8103 17.3207 15.4688 17.875C15.9142 18.2367 16.3933 18.5492 16.9063 18.8125C17.1739 18.8728 17.4239 18.8311 17.6563 18.6875C17.8646 18.4792 18.073 18.2708 18.2813 18.0625C18.3875 18.0026 18.5021 17.9714 18.625 17.9687C19.416 18.1535 20.1973 18.3722 20.9688 18.625C21.2551 18.8399 21.3488 19.1211 21.25 19.4687C20.695 20.6471 19.7679 21.2304 18.4688 21.2187C17.0991 21.0782 15.87 20.5887 14.7813 19.75C13.5546 18.836 12.5233 17.7422 11.6875 16.4687C11.1176 15.5309 10.8989 14.5206 11.0313 13.4375C11.224 12.8439 11.5573 12.3439 12.0313 11.9375C12.1919 11.8071 12.3586 11.6925 12.5313 11.5937Z" fill="#FDFEFD"/>
</g>
</g>
<defs>
<clipPath id="clip0_391_659">
<rect width="32" height="32" fill="white" transform="translate(0 0.5)"/>
</clipPath>
</defs>
</svg>

<svg xmlns="http://www.w3.org/2000/svg" width="32" height="33" fill="none"><g clip-path="url(#a)"><path fill="#29A71A" fill-rule="evenodd" d="M14.531.469h2.875c5.603.68 9.822 3.451 12.657 8.312a16.936 16.936 0 0 1 1.906 6.25v2.875c-.68 5.603-3.452 9.822-8.313 12.657a16.935 16.935 0 0 1-6.25 1.906h-2.875c-5.603-.68-9.821-3.452-12.656-8.313a16.933 16.933 0 0 1-1.906-6.25v-2.875C.649 9.43 3.42 5.21 8.28 2.375a16.934 16.934 0 0 1 6.25-1.906Z" clip-rule="evenodd" opacity=".996"/><path fill="#FDFEFD" fill-rule="evenodd" d="M15.219 6.469c4.12-.102 7.256 1.585 9.406 5.062 1.875 3.687 1.667 7.25-.625 10.688-2.311 2.982-5.363 4.326-9.156 4.031a10.83 10.83 0 0 1-3.313-.969c-1.63.366-3.255.751-4.875 1.157-.52.04-.697-.2-.531-.72.33-1.591.654-3.185.969-4.78-1.7-3.792-1.335-7.365 1.093-10.72 1.84-2.195 4.183-3.445 7.032-3.75Z" clip-rule="evenodd"/><path fill="#2AA71B" fill-rule="evenodd" d="M15.406 8.594c3.637-.016 6.23 1.609 7.781 4.875 1.148 3.378.45 6.305-2.093 8.781-2.94 2.273-6.045 2.513-9.313.719-.992.245-1.982.495-2.969.75.125-1.007.302-2.007.532-3a53.854 53.854 0 0 1-.907-2.375c-.73-3.862.573-6.81 3.907-8.844a8.95 8.95 0 0 1 3.062-.906Z" clip-rule="evenodd"/><path fill="#FDFEFD" fill-rule="evenodd" d="M12.531 11.594c.274-.01.513.074.719.25.33.68.642 1.367.938 2.062.043.214.022.423-.063.625-.28.29-.478.624-.594 1-.002.184.05.35.156.5.53.675 1.123 1.29 1.782 1.844.445.362.924.674 1.437.938a.97.97 0 0 0 .75-.125l.625-.625a.721.721 0 0 1 .344-.094c.791.184 1.572.403 2.344.656.286.215.38.496.281.844-.555 1.178-1.482 1.761-2.781 1.75a7.119 7.119 0 0 1-3.688-1.469 12.866 12.866 0 0 1-3.094-3.281 4.605 4.605 0 0 1-.656-3.032 3.27 3.27 0 0 1 1-1.5c.16-.13.328-.244.5-.343Z" clip-rule="evenodd"/></g><defs><clipPath id="a"><path fill="#fff" d="M0 .5h32v32H0z"/></clipPath></defs></svg>
